X: 40071
T: Thrush In The Morning, The
R: reel
M: 4/4
K: Dmajor
{g}a3g|Tf2 ef d2 AF|dA{c}AF A2 .g/.f/e|d2 AF {A}D~F3|ABdf eg~fe||
.dA{c}AF .dA{c}AF|{c}BAFA dADE|{A}F/E/D FA defa|{b}afef dfag||
Tf2 ef d2 AF|d2 AF A2 .g/.f/e|d2 AF {A}D~F3|ABdf eg~fe||
.dA{c}AF .dA{c}AF|{c}BAFA dADE|{A}F/E/D FA defa|{b}afef d3A||
df{g}fe fa{b}af|.gg{a}ge .ff{g}fe|dcde fa{b}af|~g3f eAce||
dg~fe f~a3|{b}ag{b}af ecdB|{c}AD.FA defa|{b}afef d2 A/B/c||
df{g}fe fa{b}af|g2{a}ge f{g}f{g}fe|dcde fa{b}af|~g3f eAce||
.dg~fe f~a3|{b}ag{b}af ecdB|{c}AD.FA defa|{b}afef d2 A/B/c||
.dA{c}AF BA{c}AF|.DA.D.F A~F3|.dFAF .d~F3|ABdf Le2 g/f/e||
.dFAF D~F3|A.dFA D~F3|AB.de .f/.g/a gb|~afef d3 A||
.dA{c}AF BA{c}AF|.DA.D.F A~F3|.dF{B}AF .d~F3|ABdf Le2 g/f/e||
.dA{B}AF .dA{B}AF|{c}BAFA dADE|{A}F/E/D FA defa|{b}a.fef dfag||

